X:517
T:Ian Powrie's Compliments To Sir Thomas Wardle 
C:Joe Buchanan's Scottish Tome - Page 004.0
I:004 0
R:Reel
Z:Carl Allison
L:1/8
M:2/4
K:Dmaj
A | "D" d>e fa | "Em" gf "A7" ef | "D" d>e fA | "G" BA AG |
"D" A>B d>e | "D" fa "B7" gf | "E7" f<e ef | "A7" e2A2 |
"D" d>e fa | "Em" gf "A7" ef | "D" d>e fA | "G" BA AG |
"D" A>B "Bm" d>e | "F#m" fa "B7" gf | "Em" eA "A7" f>e | "D" d2 d/e/f/g/ |]
"D" ag fg | "Em" gf "A7" eg | "D" f>e fA | "G" BA AG |
"D" A>B d>e | "A" fa "B7" gf | "E7" e>f e>f | "A7" e2 fg |
"D" a>g fd | "Em" gf "A7" ec | "D" d>e fa | "G" BA AG |
"D" A>B "Bm" d>e | "F#m" fa "B7" gf | "Em" eA "A7" f>e | "D" d2 d2 |]

